32x32/apps/com.github.ronnydo.wammer.svg

<svg xmlns="http://www.w3.org/2000/svg" width="32" height="32" version="1.1">
 <path style="opacity:0.2" d="M 16,2.9999996 A 14,14 0 0 0 2,17 14,14 0 0 0 16,31 14,14 0 0 0 30,17 14,14 0 0 0 16,2.9999996 Z"/>
 <path style="fill:#c2352a" d="M 16,1.9999996 A 14,14 0 0 0 2,16 14,14 0 0 0 16,30 14,14 0 0 0 30,16 14,14 0 0 0 16,1.9999996 Z"/>
 <path style="opacity:0.2" d="M 20.470703,8.0581878 19.574219,9.8511565 A 8,8 0 0 1 24,16.999594 8,8 0 0 1 19.576172,24.151938 l 0.890625,1.78125 A 10,10 0 0 0 26,16.999594 10,10 0 0 0 20.470703,8.0581878 Z m -8.9375,0.00781 A 10,10 0 0 0 6,16.999594 10,10 0 0 0 11.529297,25.941 l 0.896484,-1.792968 A 8,8 0 0 1 8,16.999594 8,8 0 0 1 12.423828,9.8472502 Z m 7.148438,3.5683598 -0.894532,1.791015 A 4,4 0 0 1 20,16.999594 4,4 0 0 1 17.789062,20.575766 l 0.890626,1.783203 A 6,6 0 0 0 22,16.999594 6,6 0 0 0 18.681641,11.63436 Z m -5.361329,0.0059 A 6,6 0 0 0 10,16.999594 a 6,6 0 0 0 3.318359,5.365234 l 0.894532,-1.791015 A 4,4 0 0 1 12,16.999594 4,4 0 0 1 14.210938,13.423422 Z"/>
 <path style="fill:#ffc400" d="m 15,17.000003 v 12.907396 a 10,15.294114 0 0 0 1,0.0926 10,15.294114 0 0 0 1,-0.07618 V 17.000003 Z"/>
 <circle style="opacity:0.2" cx="16" cy="17" r="2"/>
 <circle style="fill:#ffc400" cx="16" cy="16" r="2"/>
 <path style="fill:#ffc400" d="M 20.470703 7.0585938 L 19.574219 8.8515625 A 8 8 0 0 1 24 16 A 8 8 0 0 1 19.576172 23.152344 L 20.466797 24.933594 A 10 10 0 0 0 26 16 A 10 10 0 0 0 20.470703 7.0585938 z M 11.533203 7.0664062 A 10 10 0 0 0 6 16 A 10 10 0 0 0 11.529297 24.941406 L 12.425781 23.148438 A 8 8 0 0 1 8 16 A 8 8 0 0 1 12.423828 8.8476562 L 11.533203 7.0664062 z M 18.681641 10.634766 L 17.787109 12.425781 A 4 4 0 0 1 20 16 A 4 4 0 0 1 17.789062 19.576172 L 18.679688 21.359375 A 6 6 0 0 0 22 16 A 6 6 0 0 0 18.681641 10.634766 z M 13.320312 10.640625 A 6 6 0 0 0 10 16 A 6 6 0 0 0 13.318359 21.365234 L 14.212891 19.574219 A 4 4 0 0 1 12 16 A 4 4 0 0 1 14.210938 12.423828 L 13.320312 10.640625 z"/>
 <path style="fill:#f4f4f7;opacity:0.2" d="M 16 2 A 14 14 0 0 0 2 16 A 14 14 0 0 0 2.0214844 16.414062 A 14 14 0 0 1 16 3 A 14 14 0 0 1 29.978516 16.585938 A 14 14 0 0 0 30 16 A 14 14 0 0 0 16 2 z"/>
</svg>

<svg xmlns="http://www.w3.org/2000/svg" width="32" height="32"><path style="opacity:.2" d="M16 3A14 14 0 0 0 2 17a14 14 0 0 0 14 14 14 14 0 0 0 14-14A14 14 0 0 0 16 3z"/><path style="fill:#c2352a" d="M16 2A14 14 0 0 0 2 16a14 14 0 0 0 14 14 14 14 0 0 0 14-14A14 14 0 0 0 16 2z"/><path style="opacity:.2" d="m20.47 8.058-.896 1.793A8 8 0 0 1 24 17a8 8 0 0 1-4.424 7.152l.89 1.781A10 10 0 0 0 26 17a10 10 0 0 0-5.53-8.942zm-8.937.008A10 10 0 0 0 6 17a10 10 0 0 0 5.53 8.941l.896-1.793A8 8 0 0 1 8 17a8 8 0 0 1 4.424-7.153zm7.149 3.568-.895 1.791A4 4 0 0 1 20 17a4 4 0 0 1-2.21 3.576l.89 1.783a6 6 0 0 0 3.32-5.36 6 6 0 0 0-3.318-5.365zm-5.362.006A6 6 0 0 0 10 17a6 6 0 0 0 3.318 5.365l.895-1.791A4 4 0 0 1 12 17a4 4 0 0 1 2.21-3.577z"/><path style="fill:#ffc400" d="M15 17v12.907A10 15.294 0 0 0 16 30a10 15.294 0 0 0 1-.076V17z"/><circle style="opacity:.2" cx="16" cy="17" r="2"/><circle style="fill:#ffc400" cx="16" cy="16" r="2"/><path style="fill:#ffc400" d="m20.47 7.059-.896 1.793A8 8 0 0 1 24 16a8 8 0 0 1-4.424 7.152l.89 1.782A10 10 0 0 0 26 16a10 10 0 0 0-5.53-8.941zm-8.937.007A10 10 0 0 0 6 16a10 10 0 0 0 5.53 8.941l.896-1.793A8 8 0 0 1 8 16a8 8 0 0 1 4.424-7.152l-.89-1.782zm7.149 3.569-.895 1.79A4 4 0 0 1 20 16a4 4 0 0 1-2.21 3.576l.89 1.783A6 6 0 0 0 22 16a6 6 0 0 0-3.318-5.365zm-5.362.006A6 6 0 0 0 10 16a6 6 0 0 0 3.318 5.365l.895-1.79A4 4 0 0 1 12 16a4 4 0 0 1 2.21-3.576l-.89-1.783z"/><path style="fill:#f4f4f7;opacity:.2" d="M16 2A14 14 0 0 0 2 16a14 14 0 0 0 .021.414A14 14 0 0 1 16 3a14 14 0 0 1 13.979 13.586A14 14 0 0 0 30 16 14 14 0 0 0 16 2z"/></svg>
